X:1
T:Bergamo, 76.76.76 D
T:Bergamo, 76.76.76 D
T:Harold B. Adams, 1880
T:Public Domain Courtesy of the Cyber Hymnal™
C:Harold B. Adams, 1880
Z:Public Domain
Z:Courtesy of the Cyber Hymnal™
%%score ( 1 2 ) 3
L:1/8
Q:1/4=80
M:4/4
K:Bb
V:1 treble 
V:2 treble 
V:3 bass 
V:1
 [DF] | [Fd]>[Ec] [DB][EG] [EG] [DF]2 [DB] | [Fc]>[Fc] [FB][Fd] [Fc]3 F | %3
 [Fd]>[Ec] [DB][EG] [EG] [DF]2 [DB] | [Ec]>[DB] [Fd][Ec] [DB]3 [FA] | %5
 [Ac]>[Ac] [Ac][Bd] [Ac] [GB]2 [FA] | [=EG]>[EG] [Ac][GB] [FA]3 [FA] | %7
 [Ac]>[Ac] [Ac][Bd] [ce] [Bd]2 [Bd] | [Ac]>[GB] [FA][=EG] F3 F | %9
 [Fd]>[Ec] [DB][EG] [EG] [DF]2 [DB] | [Fc]>[Fc] [FB][Fd] [Fc]3 F | %11
 [Fd]>[Ec] [DB][DF] [EG] [Ge]2 [Ge] | [Fd]>[Ec] !fermata![DB]!fermata![EA] !fermata![DB]3 |] %13
V:2
 x | x8 | x7 F | x8 | x8 | x8 | x8 | x8 | x4 F3 F | x8 | x7 F | x8 | x7 |] %13
V:3
 [B,,B,] | [B,,B,]>[F,A,] [G,B,][E,B,] [B,,B,] [B,,B,]2 [B,,B,] | %2
 [F,A,]>[F,A,] [D,B,][B,,B,] [F,A,]3 [F,A,] | %3
 [B,,B,]>[F,A,] [G,B,][E,B,] [B,,B,] [B,,B,]2 [B,,B,] | [F,A,]>[F,B,] [F,B,][F,A,] [B,,B,]3 z | %5
 [F,,F,]4 [C,,C,]4 | [C,,C,]4 [F,,F,]4 | [F,,F,]4 [B,,,B,,]4 | [C,,C,]4 F,E,D,[C,A,] | %9
 [B,,B,]>[F,A,] [G,B,][E,B,] [B,,B,] [B,,B,]2 [B,,B,] | %10
 [F,A,]>[F,A,] [D,B,][B,,B,] [F,A,]3 [F,A,] | %11
 [B,,B,]>[B,,B,] [B,,B,][B,,B,] [E,B,] [E,B,]2 [E,B,] | %12
 [F,B,]>[F,A,] !fermata![F,B,]!fermata![F,C] !fermata![B,,B,]3 |] %13

